quad-stuff-work-in-progress/skirt-escwireholes.svg

<?xml version="1.0" encoding="UTF-8" standalone="no"?>
<!-- Created with Inkscape (http://www.inkscape.org/) -->

<svg
   xmlns:dc="http://purl.org/dc/elements/1.1/"
   xmlns:cc="http://creativecommons.org/ns#"
   xmlns:rdf="http://www.w3.org/1999/02/22-rdf-syntax-ns#"
   xmlns:svg="http://www.w3.org/2000/svg"
   xmlns="http://www.w3.org/2000/svg"
   xmlns:sodipodi="http://sodipodi.sourceforge.net/DTD/sodipodi-0.dtd"
   xmlns:inkscape="http://www.inkscape.org/namespaces/inkscape"
   width="51.187855mm"
   height="98.027863mm"
   viewBox="0 0 181.37429 347.34282"
   id="svg7306"
   version="1.1"
   inkscape:version="0.91 r13725"
   sodipodi:docname="skirt-escwireholes.svg">
  <defs
     id="defs7308" />
  <sodipodi:namedview
     id="base"
     pagecolor="#ffffff"
     bordercolor="#666666"
     borderopacity="1.0"
     inkscape:pageopacity="0.0"
     inkscape:pageshadow="2"
     inkscape:zoom="2.8"
     inkscape:cx="37.986213"
     inkscape:cy="167.02331"
     inkscape:document-units="px"
     inkscape:current-layer="layer1"
     showgrid="false"
     inkscape:window-width="2560"
     inkscape:window-height="1376"
     inkscape:window-x="0"
     inkscape:window-y="27"
     inkscape:window-maximized="1"
     fit-margin-top="0"
     fit-margin-left="0"
     fit-margin-right="0"
     fit-margin-bottom="0" />
  <metadata
     id="metadata7311">
    <rdf:RDF>
      <cc:Work
         rdf:about="">
        <dc:format>image/svg+xml</dc:format>
        <dc:type
           rdf:resource="http://purl.org/dc/dcmitype/StillImage" />
        <dc:title></dc:title>
      </cc:Work>
    </rdf:RDF>
  </metadata>
  <g
     inkscape:label="Layer 1"
     inkscape:groupmode="layer"
     id="layer1"
     transform="translate(-281.3601,-352.50969)">
    <path
       style="display:inline;opacity:1;fill:#000000;fill-opacity:1;fill-rule:evenodd;stroke:none;stroke-width:0.28222221px;stroke-linecap:butt;stroke-linejoin:miter;stroke-opacity:1"
       d="M 90.519531,0 C 68.022751,0.0319 55.60994,2.2652206 46.75,2.8066406 37.66028,3.3620206 36.215083,9.297515 35.939453,13.828125 c 0,22.01167 1.021241,34.865489 -15.849609,62.287109 0.745799,10.104016 0.417953,19.515564 -0.642578,28.255856 l 1.998046,0.42579 c 1.059768,-8.708543 1.40742,-18.075578 0.71875,-28.105474 12.989441,-21.3059 15.369773,-36.037786 15.789063,-51.128906 34.77719,6.15664 70.022385,6.22424 105.751955,0 0.47799,14.78203 2.98937,30.176603 15.76562,51.132812 -0.68713,10.007463 -0.34352,19.354868 0.71094,28.046878 l 1.74609,-0.3711 C 160.86719,95.630765 160.53739,86.219295 161.2832,76.115234 144.41233,48.693614 145.43359,35.839795 145.43359,13.828125 145.15796,9.297515 143.71277,3.3620206 134.62305,2.8066406 125.76311,2.2652206 113.3503,0.0327 90.853516,0 l -0.167969,0 c -0.0568,-1.1e-4 -0.109116,0 -0.166016,0 z M 44.820312,6.5019531 c 3.65554,2.1e-4 6.618881,2.9636507 6.619141,6.6191409 -2.1e-4,3.6556 -2.963561,6.61897 -6.619141,6.61914 -3.65557,-1.7e-4 -6.61893,-2.96354 -6.61914,-6.61914 2.6e-4,-3.6554902 2.963611,-6.6189309 6.61914,-6.6191409 z m 91.759768,0 c 3.65554,2.1e-4 6.61888,2.9636507 6.61914,6.6191409 -2e-4,3.6556 -2.96356,6.61897 -6.61914,6.61914 -3.65634,8.2e-4 -6.6209,-2.96283 -6.6211,-6.61914 2.6e-4,-3.6563002 2.9648,-6.6199209 6.6211,-6.6191409 z M 7.3535156,147.72266 c -1.1414556,2.62521 -2.2991456,5.13379 -3.4492187,7.52148 -4.31830003,7.42354 -5.18987,6.68418 -1.9375,19.51563 7.74797,43.6663 5.7990656,86.07913 -1.1464844,122.5 -0.74027,2.53648 -0.56008125,3.20498 1.3867187,4.51171 0.2818885,0.19106 0.5427818,0.37959 0.8222657,0.57032 l 1.3730469,-1.66992 C 4.037913,300.42107 3.6671922,300.1539 3.3046875,299.9082 l -0.00586,-0.008 c -0.58497,-0.3927 -0.7493725,-0.56772 -0.7890625,-0.60351 0.0269,0.0595 -0.00699,-0.30899 0.3125,-1.4043 0.0227,-0.068 0.040487,-0.13688 0.054687,-0.20703 6.99141,-36.66126 8.951758,-79.33822 1.1484375,-123.31641 -0.007,-0.0535 -0.019003,-0.10737 -0.033203,-0.16016 -0.25016,-2.04052 4.2303325,1.0933 8.5078125,-0.81445 2.16106,-0.96388 8.140483,-6.3318 4.345703,-13.2832 -3.65531,-7.20181 -11.7514761,-2.67322 -9.8164061,-6.52344 0.8101305,-1.73949 1.6171975,-3.55849 2.4179687,-5.41797 z m 166.6660144,0 -1.85351,0.39453 c 0.80874,1.87958 1.62305,3.71746 2.4414,5.47461 1.93508,3.85027 -6.16304,-0.67837 -9.81836,6.52343 -3.79478,6.95141 2.18462,12.31932 4.34571,13.28321 4.27745,1.90775 8.75992,-1.22607 8.50976,0.81445 -0.0135,0.0528 -0.0256,0.10666 -0.0352,0.16016 -7.80328,43.97822 -5.84297,86.65511 1.14843,123.3164 0.0153,0.0698 0.035,0.13864 0.0566,0.20703 0.31975,1.09527 0.28362,1.46383 0.31055,1.4043 -0.0398,0.0358 -0.20423,0.21082 -0.78906,0.60352 l -0.008,0.008 c -0.61272,0.41529 -1.23556,0.86327 -1.85351,1.29297 l 1.27344,1.54883 c 0.4788,-0.3284 0.93203,-0.65307 1.41797,-0.98243 1.94681,-1.30673 2.127,-1.97523 1.38671,-4.51171 -6.94553,-36.42087 -8.89445,-78.8337 -1.14648,-122.5 3.25237,-12.83145 2.3808,-12.09209 -1.9375,-19.51563 -1.15007,-2.3877 -2.30776,-4.89627 -3.44922,-7.52148 z M 8.9414062,158.16602 c 3.6555498,2.1e-4 6.6189108,2.96358 6.6191408,6.61914 8.5e-4,3.6563 -2.962821,6.62084 -6.6191408,6.62109 -3.6563199,-2.5e-4 -6.6199906,-2.96479 -6.6191406,-6.62109 2.4e-4,-3.65556 2.9635906,-6.61893 6.6191406,-6.61914 z m 163.4140638,0 c 3.65555,2.1e-4 6.6189,2.96358 6.61914,6.61914 8.5e-4,3.6563 -2.96282,6.62084 -6.61914,6.62109 -3.65632,-2.5e-4 -6.61999,-2.96479 -6.61914,-6.62109 2.4e-4,-3.65556 2.96359,-6.61893 6.61914,-6.61914 z M 37.080078,332.11133 c 14.88737,0 12.834272,15.23242 53.607422,15.23242 41.04878,0 38.71808,-15.23242 53.60547,-15.23242 l -5.78125,-15.71094 c -31.7968,7.14982 -63.593826,6.30393 -95.390626,-0.004 z"
       transform="translate(281.3601,352.50969)"
       id="path6384-0"
       inkscape:connector-curvature="0"
       sodipodi:nodetypes="csccccccccccccscccccccccccccccccccccccccccccccccccccccccccccccccccccccccccccccccccc" />
  </g>
</svg>

<?xml version="1.0" encoding="UTF-8" standalone="no"?>
<!-- Created with Inkscape (http://www.inkscape.org/) -->

<svg
   xmlns:dc="http://purl.org/dc/elements/1.1/"
   xmlns:cc="http://creativecommons.org/ns#"
   xmlns:rdf="http://www.w3.org/1999/02/22-rdf-syntax-ns#"
   xmlns:svg="http://www.w3.org/2000/svg"
   xmlns="http://www.w3.org/2000/svg"
   xmlns:sodipodi="http://sodipodi.sourceforge.net/DTD/sodipodi-0.dtd"
   xmlns:inkscape="http://www.inkscape.org/namespaces/inkscape"
   width="51.187855mm"
   height="98.027863mm"
   viewBox="0 0 181.37429 347.34282"
   id="svg7306"
   version="1.1"
   inkscape:version="0.91 r13725"
   sodipodi:docname="skirt-escwireholes.svg">
  <defs
     id="defs7308" />
  <sodipodi:namedview
     id="base"
     pagecolor="#ffffff"
     bordercolor="#666666"
     borderopacity="1.0"
     inkscape:pageopacity="0.0"
     inkscape:pageshadow="2"
     inkscape:zoom="0.98994949"
     inkscape:cx="95.777402"
     inkscape:cy="135.32478"
     inkscape:document-units="px"
     inkscape:current-layer="layer1"
     showgrid="false"
     inkscape:window-width="1366"
     inkscape:window-height="704"
     inkscape:window-x="0"
     inkscape:window-y="27"
     inkscape:window-maximized="1"
     fit-margin-top="0"
     fit-margin-left="0"
     fit-margin-right="0"
     fit-margin-bottom="0" />
  <metadata
     id="metadata7311">
    <rdf:RDF>
      <cc:Work
         rdf:about="">
        <dc:format>image/svg+xml</dc:format>
        <dc:type
           rdf:resource="http://purl.org/dc/dcmitype/StillImage" />
        <dc:title></dc:title>
      </cc:Work>
    </rdf:RDF>
  </metadata>
  <g
     inkscape:label="Layer 1"
     inkscape:groupmode="layer"
     id="layer1"
     transform="translate(-281.3601,-352.50969)">
    <path
       style="display:inline;opacity:1;fill:#000000;fill-opacity:1;fill-rule:evenodd;stroke:none;stroke-width:0.28222221px;stroke-linecap:butt;stroke-linejoin:miter;stroke-opacity:1"
       d="M 90.519531 0 C 68.022751 0.0319 55.60994 2.2652206 46.75 2.8066406 C 37.66028 3.3620206 36.215083 9.297515 35.939453 13.828125 C 35.939453 35.839795 36.960694 48.693614 20.089844 76.115234 C 20.835643 86.21925 20.507797 95.630798 19.447266 104.37109 L 21.445312 104.79688 C 22.50508 96.088337 22.852732 86.721302 22.164062 76.691406 C 35.153503 55.385506 37.533835 40.65362 37.953125 25.5625 C 72.730315 31.71914 107.97551 31.78674 143.70508 25.5625 C 144.18307 40.34453 146.69445 55.739103 159.4707 76.695312 C 158.78357 86.702775 159.12718 96.05018 160.18164 104.74219 L 161.92773 104.37109 C 160.86719 95.630765 160.53739 86.219295 161.2832 76.115234 C 144.41233 48.693614 145.43359 35.839795 145.43359 13.828125 C 145.15796 9.297515 143.71277 3.3620206 134.62305 2.8066406 C 125.76311 2.2652206 113.3503 0.0327 90.853516 0 L 90.685547 0 C 90.628747 -0.00011 90.576431 0 90.519531 0 z M 44.820312 6.5019531 C 48.475852 6.5021631 51.439193 9.4656038 51.439453 13.121094 C 51.439243 16.776694 48.475892 19.740064 44.820312 19.740234 C 41.164742 19.740064 38.201382 16.776694 38.201172 13.121094 C 38.201432 9.4656038 41.164783 6.5021631 44.820312 6.5019531 z M 136.58008 6.5019531 C 140.23562 6.5021631 143.19896 9.4656038 143.19922 13.121094 C 143.19902 16.776694 140.23566 19.740064 136.58008 19.740234 C 132.92374 19.741054 129.95918 16.777404 129.95898 13.121094 C 129.95924 9.4647938 132.92378 6.5011731 136.58008 6.5019531 z M 7.3535156 147.72266 C 6.21206 150.34787 5.05437 152.85645 3.9042969 155.24414 C -0.41400313 162.66768 -1.2855731 161.92832 1.9667969 174.75977 C 9.7147669 218.42607 7.7658625 260.8389 0.8203125 297.25977 C 0.0800425 299.79625 0.26023125 300.46475 2.2070312 301.77148 C 2.4889197 301.96254 2.749813 302.15107 3.0292969 302.3418 L 4.4023438 300.67188 C 4.037913 300.42107 3.6671922 300.1539 3.3046875 299.9082 L 3.2988281 299.90039 C 2.7138581 299.50769 2.5494556 299.33267 2.5097656 299.29688 C 2.5366656 299.35637 2.5027756 298.98789 2.8222656 297.89258 C 2.8449656 297.82458 2.8627531 297.7557 2.8769531 297.68555 C 9.8683631 261.02429 11.828711 218.34733 4.0253906 174.36914 C 4.0183906 174.31564 4.0063875 174.26177 3.9921875 174.20898 C 3.7420275 172.16846 8.22252 175.30228 12.5 173.39453 C 14.66106 172.43065 20.640483 167.06273 16.845703 160.11133 C 13.190393 152.90952 5.0942269 157.43811 7.0292969 153.58789 C 7.8394274 151.8484 8.6464944 150.0294 9.4472656 148.16992 L 7.3535156 147.72266 z M 174.01953 147.72266 L 172.16602 148.11719 C 172.97476 149.99677 173.78907 151.83465 174.60742 153.5918 C 176.5425 157.44207 168.44438 152.91343 164.78906 160.11523 C 160.99428 167.06664 166.97368 172.43455 169.13477 173.39844 C 173.41222 175.30619 177.89469 172.17237 177.64453 174.21289 C 177.63103 174.26569 177.61898 174.31955 177.60938 174.37305 C 169.8061 218.35127 171.76641 261.02816 178.75781 297.68945 C 178.77311 297.75925 178.79285 297.82809 178.81445 297.89648 C 179.1342 298.99175 179.09807 299.36031 179.125 299.30078 C 179.0852 299.33658 178.92077 299.5116 178.33594 299.9043 L 178.32812 299.91211 C 177.7154 300.3274 177.09256 300.77538 176.47461 301.20508 L 177.74805 302.75391 C 178.22685 302.42551 178.68008 302.10084 179.16602 301.77148 C 181.11283 300.46475 181.29302 299.79625 180.55273 297.25977 C 173.6072 260.8389 171.65828 218.42607 179.40625 174.75977 C 182.65862 161.92832 181.78705 162.66768 177.46875 155.24414 C 176.31868 152.85644 175.16099 150.34787 174.01953 147.72266 z M 8.9414062 158.16602 C 12.596956 158.16623 15.560317 161.1296 15.560547 164.78516 C 15.561397 168.44146 12.597726 171.406 8.9414062 171.40625 C 5.2850863 171.406 2.3214156 168.44146 2.3222656 164.78516 C 2.3225056 161.1296 5.2858562 158.16623 8.9414062 158.16602 z M 172.35547 158.16602 C 176.01102 158.16623 178.97437 161.1296 178.97461 164.78516 C 178.97546 168.44146 176.01179 171.406 172.35547 171.40625 C 168.69915 171.406 165.73548 168.44146 165.73633 164.78516 C 165.73657 161.1296 168.69992 158.16623 172.35547 158.16602 z M 33.96875 307.21484 C 33.203195 307.21565 32.409056 307.28336 31.59375 307.42188 C 30.74237 307.56651 30.02228 307.80895 29.394531 308.11328 L 22.195312 316.87305 C 27.866781 321.77812 32.809597 326.78728 37.080078 332.11133 C 51.967448 332.11133 49.91435 347.34375 90.6875 347.34375 C 131.73628 347.34375 129.40558 332.11133 144.29297 332.11133 C 148.42571 326.959 153.1938 322.10319 158.63672 317.34961 L 150.57227 307.53711 C 150.39903 307.49714 150.2257 307.45716 150.04102 307.42578 C 143.51857 306.31768 138.33512 309.68721 138.51172 316.40039 C 106.71492 323.55021 74.917894 322.70432 43.121094 316.39648 C 43.275619 310.52245 39.327637 307.20923 33.96875 307.21484 z M 34.185547 309.82617 C 37.841097 309.82642 40.804458 312.78975 40.804688 316.44531 C 40.804458 320.10087 37.841097 323.0642 34.185547 323.06445 C 30.529997 323.0642 27.566646 320.10087 27.566406 316.44531 C 27.566646 312.78975 30.529997 309.82642 34.185547 309.82617 z M 147.18555 309.82617 C 150.8411 309.82642 153.80445 312.78975 153.80469 316.44531 C 153.80445 320.10087 150.8411 323.0642 147.18555 323.06445 C 143.53 323.0642 140.56665 320.10087 140.56641 316.44531 C 140.56665 312.78975 143.53 309.82642 147.18555 309.82617 z "
       transform="translate(281.3601,352.50969)"
       id="path6384-0" />
  </g>
</svg>
